www/assets/icons/group_off.svg

<svg width="24" height="24" viewBox="0 0 24 24" xmlns="http://www.w3.org/2000/svg" fill='currentColor'><path d="M15.155 7.29502C15.155 5.87502 14.655 4.56502 13.825 3.53502C14.245 3.39502 14.685 3.29502 15.155 3.29502C17.365 3.29502 19.155 5.08502 19.155 7.29502C19.155 9.50502 17.365 11.295 15.155 11.295C15.095 11.295 15.035 11.295 14.975 11.295L14.205 10.525C14.805 9.58502 15.155 8.47502 15.155 7.29502ZM22.985 19.295H23.155V16.295C23.155 14.115 19.575 12.825 16.815 12.425C17.915 13.175 18.765 14.135 19.045 15.365L22.985 19.295ZM7.39497 3.70502C7.92497 3.44502 8.52497 3.29502 9.15497 3.29502C11.365 3.29502 13.155 5.08502 13.155 7.29502C13.155 7.92502 13.005 8.52502 12.745 9.05502L7.39497 3.70502ZM9.32497 11.295C9.26497 11.295 9.21497 11.295 9.15497 11.295C6.94497 11.295 5.15497 9.50502 5.15497 7.29502C5.15497 7.23502 5.15497 7.18502 5.15497 7.12502L0.844971 2.80502L2.25497 1.39502L22.055 21.195L20.645 22.605L17.155 19.125V19.295H1.15497V16.295C1.15497 13.635 6.48497 12.295 9.15497 12.295C9.52497 12.295 9.95497 12.325 10.405 12.375L9.32497 11.295Z"/></svg>

<svg xmlns="http://www.w3.org/2000/svg" width="24" height="24" viewBox="0 0 24 24" fill='currentColor'><path d="M15.155 7.295c0-1.42-.5-2.73-1.33-3.76.42-.14.86-.24 1.33-.24 2.21 0 4 1.79 4 4s-1.79 4-4 4h-.18l-.77-.77c.6-.94.95-2.05.95-3.23m7.83 12h.17v-3c0-2.18-3.58-3.47-6.34-3.87 1.1.75 1.95 1.71 2.23 2.94zM7.395 3.705a3.996 3.996 0 0 1 5.35 5.35zm1.93 7.59h-.17c-2.21 0-4-1.79-4-4v-.17l-4.31-4.32 1.41-1.41 19.8 19.8-1.41 1.41-3.49-3.48v.17h-16v-3c0-2.66 5.33-4 8-4 .37 0 .8.03 1.25.08z"/></svg>
